X:1
T:Title
%%score { ( 1 3 ) | ( 2 4 ) }
L:1/8
M:4/4
K:G
V:1 treble nm="Grand Piano"
V:3 treble 
V:2 treble 
V:4 treble 
V:1
 z4 z2[Q:1/4=100] B2 | B3 A G2 E2 | D6 B2 | B3 A z BcB |[M:3/4] [GB]4 A2 |[M:1/4] [DFA]2 | %6
[M:4/4] [DFA]3 [DEG] [CDF]2 [DGB]2 | [GB]3 A [Ad]2 d2 | A3 [DF] [^CE]G[A,DF][CE] | %9
[M:3/4][K:bass] [F,D]6 |[M:1/4] z2 |[M:4/4][K:treble] A4 z4 | [DAc]6 z2 | B4 z4 |[M:3/4] [Bd]6 | %15
[M:1/4] d2 |[M:4/4] d3 c BA[B,G]F | E3 F [EG]2 E-[Ec] | B3 A GFEF |[M:3/4] [G,B,DG]6 |] %20
V:2
 z4 z2 [G,DG]2 | [G,DG]3 [G,CD] [G,B,D]2 [G,C]2 | [G,B,]6 [G,DG]2 | [G,DG]3 [G,CG] B,DG-[DG] | %4
[M:3/4][K:bass] z2 z2 F2 |[M:1/4] D,2 |[M:4/4] D,3 D, D,2 D,2 | z2 z[K:treble] F F,2 [G,B,G]2 | %8
 [A,F]3[K:bass] [A,,A,] z E z G, |[M:3/4] D,6 |[M:1/4][K:treble] D2 |[M:4/4] F4[K:bass] z4 | %12
 D,6[K:treble] D2 | G4 z4 |[M:3/4] [G,D]6 |[M:1/4] [G,B,G]2 | %16
[M:4/4] [G,B,G]3 [G,EG] [G,G]-[G,CG][K:bass] z A, | C3 D C2 z A, | %18
 [D,G,D]3 [D,CD] B,A,[D,D]-[D,A,D] |[M:3/4] G,,6 |] %20
V:3
 x8 | x8 | x8 | z4 G2 z2 |[M:3/4] D6 |[M:1/4] x2 |[M:4/4] x8 | D6 z2 | x8 |[M:3/4][K:bass] x6 | %10
[M:1/4] x2 |[M:4/4][K:treble] z DD[D=F^G] [D^FA]2 [D=GB]2 | x8 | z DD_B =B2 [Ac]2 |[M:3/4] x6 | %15
[M:1/4] x2 |[M:4/4] x8 | z4 z2 .[B,A]2 | x8 |[M:3/4] x6 |] %20
V:4
 x8 | x8 | x8 | z4 G,2 .E2 |[M:3/4][K:bass] D,6 |[M:1/4] x2 |[M:4/4] x8 | D,4[K:treble] z4 | %8
 z4[K:bass] [A,,A,]2 A,,2 |[M:3/4] x6 |[M:1/4][K:treble] x2 |[M:4/4] z[K:bass] D,D,D, D,2 D,2 | %12
 x6[K:treble] x2 | z G,G,[G,^DG] [G,DG]2 [G,D]2 |[M:3/4] x6 |[M:1/4] x2 | %16
[M:4/4] z4 .D2[K:bass] G,2 | [C,-G,]4 C,2 A,,2 | z4 [D,D]2 .G,2 |[M:3/4] x6 |] %20

